Flat-Remix-Dark/apps/scalable/dosbox.svg

<svg xmlns="http://www.w3.org/2000/svg" width="384pt" height="384pt" version="1.1" viewBox="0 0 384 384"> <g> <path style="fill-rule:evenodd;fill:rgb(9.803%,9.803%,9.803%);stroke-width:5.472952;stroke-linejoin:round;stroke:rgb(100.000%,100.000%,100.000%)" d="M 14.29213 174.839266 L 130.199051 174.839266 C 133.309423 174.839266 135.830353 177.361666 135.830353 180.472038 L 135.830353 269.020622 C 135.830353 272.130994 133.309423 274.653394 130.199051 274.653394 L 14.29213 274.653394 C 11.181758 274.653394 8.659358 272.130994 8.659358 269.020622 L 8.659358 180.472038 C 8.659358 177.361666 11.181758 174.839266 14.29213 174.839266 Z M 14.29213 174.839266" transform="matrix(2.657439,0,0,2.657439,0,-405.265389)"/> <path style="fill:rgb(4.705%,63.137%,36.862%)" d="M 161.964844 135.351562 L 161.964844 129.792969 L 200.015625 129.792969 L 200.015625 140.90625 L 161.964844 140.90625 Z M 161.964844 135.351562"/> <path style="fill:rgb(4.705%,63.137%,36.862%);stroke-width:2;stroke:rgb(4.705%,63.137%,36.862%)" d="M 92.444334 145.048977 L 166.949799 151.565475 L 92.23526 124.663854 Z M 92.444334 145.048977" transform="matrix(0.46709,0,0,0.55628,75.65999,18.995696)"/> <path style="fill:rgb(4.705%,63.137%,36.862%);stroke-width:2;stroke:rgb(4.705%,63.137%,36.862%)" d="M 92.352342 181.367219 L 167.200687 173.116265 L 92.151631 201.752342 Z M 92.352342 181.367219" transform="matrix(0.46709,0,0,0.55628,75.65999,18.995696)"/> <path style="fill:rgb(4.705%,63.137%,36.862%);stroke-width:2;stroke:rgb(4.705%,63.137%,36.862%)" d="M 166.247311 151.61463 L 92.009461 145.027911 L 166.523289 172.407034 Z M 166.247311 151.61463" transform="matrix(0.46709,0,0,0.55628,75.65999,18.995696)"/> <path style="fill:rgb(4.705%,63.137%,36.862%);stroke-width:2;stroke:rgb(4.705%,63.137%,36.862%)" d="M 166.046601 172.849426 L 91.80875 181.275932 L 166.255674 152.471325 Z M 166.046601 172.849426" transform="matrix(0.46709,0,0,0.55628,75.65999,18.995696)"/> <path style="fill:rgb(4.705%,63.137%,36.862%)" d="M 89.578125 130.574219 C 84.878906 132.242188 80.195312 133.074219 75.523438 133.074219 C 67.898438 133.074219 62.015625 131.019531 57.882812 126.910156 C 53.773438 122.796875 51.722656 116.964844 51.722656 109.40625 C 51.722656 101.992188 53.746094 96.199219 57.800781 92.03125 C 61.882812 87.867188 67.546875 85.78125 74.796875 85.78125 C 79.414062 85.78125 84.074219 86.503906 88.773438 87.949219 L 88.773438 94.824219 C 83.589844 92.90625 79.175781 91.949219 75.523438 91.949219 C 70.742188 91.949219 66.984375 93.503906 64.246094 96.617188 C 61.535156 99.726562 60.179688 103.992188 60.179688 109.40625 C 60.179688 114.878906 61.628906 119.171875 64.527344 122.285156 C 67.453125 125.367188 71.480469 126.910156 76.609375 126.910156 C 80.449219 126.910156 84.773438 125.976562 89.578125 124.117188 L 89.578125 130.574219"/> <path style="fill:rgb(4.705%,63.137%,36.862%)" d="M 97.242188 99.117188 L 97.242188 86.78125 L 109.164062 86.78125 L 109.164062 99.117188 L 97.242188 99.117188 M 97.242188 132.035156 L 97.242188 119.699219 L 109.164062 119.699219 L 109.164062 132.035156 L 97.242188 132.035156"/> </g> </svg>

<svg width="512" height="512" version="1.1" viewBox="0 0 384 384" xmlns="http://www.w3.org/2000/svg"><g fill-rule="evenodd"><path d="m37.957 52.051c-12.199 0-22.246 9.8991-22.246 21.921v231.93c0 12.022 10.047 21.921 22.246 21.921h308.06c12.199 0 22.242-9.9014 22.242-21.921v-231.93c0-12.02-10.043-21.921-22.242-21.921zm0 14.334h308.06c4.3347 0 7.6945 3.3126 7.6945 7.5868v231.93c0 4.2742-3.3598 7.5849-7.6945 7.5849h-308.06c-4.3347 0-7.6984-3.313-7.6984-7.5849v-231.93c0-4.2719 3.3637-7.5868 7.6984-7.5868z" color="#000000" color-rendering="auto" dominant-baseline="auto" fill="#fff" image-rendering="auto" opacity=".2" shape-rendering="auto" solid-color="#000000" stroke="#000" stroke-linejoin="round" stroke-width="7.4466" style="font-feature-settings:normal;font-variant-alternates:normal;font-variant-caps:normal;font-variant-ligatures:normal;font-variant-numeric:normal;font-variant-position:normal;isolation:auto;mix-blend-mode:normal;shape-padding:0;text-decoration-color:#000000;text-decoration-line:none;text-decoration-style:solid;text-indent:0;text-orientation:mixed;text-transform:none;white-space:normal"/><path d="m37.995 59.604c-12.197 0-22.242 10.043-22.242 22.24v235.31c0 12.197 10.045 22.24 22.242 22.24h308.01c12.197 0 22.238-10.045 22.238-22.24v-235.31c0-12.195-10.041-22.24-22.238-22.24z" color="#000000" color-rendering="auto" dominant-baseline="auto" image-rendering="auto" opacity=".3" shape-rendering="auto" solid-color="#000000" style="font-feature-settings:normal;font-variant-alternates:normal;font-variant-caps:normal;font-variant-ligatures:normal;font-variant-numeric:normal;font-variant-position:normal;isolation:auto;mix-blend-mode:normal;shape-padding:0;text-decoration-color:#000000;text-decoration-line:none;text-decoration-style:solid;text-indent:0;text-orientation:mixed;text-transform:none;white-space:normal"/><path transform="matrix(2.6574 0 0 2.6574 0 -405.27)" d="m14.292 174.84h115.91c3.1104 0 5.6313 2.5224 5.6313 5.6328v88.549c0 3.1104-2.5209 5.6328-5.6313 5.6328h-115.91c-3.1104 0-5.6328-2.5224-5.6328-5.6328v-88.549c0-3.1104 2.5224-5.6328 5.6328-5.6328z" fill="#181818" stroke="#fff" stroke-linejoin="round" stroke-width="5.473"/></g><g fill="#0ba05d"><path d="m161.96 135.35v-5.5586h38.051v11.113h-38.051z"/><g stroke="#0ba05d" stroke-width="2"><path transform="matrix(.46709 0 0 .55628 75.66 18.996)" d="m92.444 145.05 74.505 6.5165-74.715-26.902z"/><path transform="matrix(.46709 0 0 .55628 75.66 18.996)" d="m92.352 181.37 74.848-8.251-75.049 28.636z"/><path transform="matrix(.46709 0 0 .55628 75.66 18.996)" d="m166.25 151.61-74.238-6.5867 74.514 27.379z"/><path transform="matrix(.46709 0 0 .55628 75.66 18.996)" d="m166.05 172.85-74.238 8.4265 74.447-28.805z"/></g><path d="m89.578 130.57c-4.6992 1.668-9.3828 2.5-14.055 2.5-7.625 0-13.508-2.0547-17.641-6.1641-4.1094-4.1133-6.1602-9.9453-6.1602-17.504 0-7.4141 2.0234-13.207 6.0781-17.375 4.082-4.1641 9.7461-6.25 16.996-6.25 4.6172 0 9.2773 0.72266 13.977 2.168v6.875c-5.1836-1.918-9.5977-2.875-13.25-2.875-4.7812 0-8.5391 1.5547-11.277 4.668-2.7109 3.1094-4.0664 7.375-4.0664 12.789 0 5.4727 1.4492 9.7656 4.3477 12.879 2.9258 3.082 6.9531 4.625 12.082 4.625 3.8398 0 8.1641-0.93359 12.969-2.793v6.457"/><path d="m97.242 99.117v-12.336h11.922v12.336h-11.922m0 32.918v-12.336h11.922v12.336h-11.922"/></g></svg>
